osm_icons/miniature_golf.svg

<?xml version="1.0" encoding="UTF-8" standalone="no"?>
<svg
   xmlns:dc="http://purl.org/dc/elements/1.1/"
   xmlns:cc="http://creativecommons.org/ns#"
   xmlns:rdf="http://www.w3.org/1999/02/22-rdf-syntax-ns#"
   xmlns:svg="http://www.w3.org/2000/svg"
   xmlns="http://www.w3.org/2000/svg"
   xmlns:sodipodi="http://sodipodi.sourceforge.net/DTD/sodipodi-0.dtd"
   xmlns:inkscape="http://www.inkscape.org/namespaces/inkscape"
   inkscape:version="1.0beta1 (32d4812, 2019-09-19)"
   sodipodi:docname="miniature_golf.svg"
   version="1.0"
   width="20"
   height="20"
   id="svg2">
  <metadata
     id="metadata19">
    <rdf:RDF>
      <cc:Work
         rdf:about="">
        <dc:format>image/svg+xml</dc:format>
        <dc:type
           rdf:resource="http://purl.org/dc/dcmitype/StillImage" />
      </cc:Work>
    </rdf:RDF>
  </metadata>
  <sodipodi:namedview
     inkscape:current-layer="svg2"
     inkscape:window-maximized="0"
     inkscape:window-y="23"
     inkscape:window-x="0"
     inkscape:cy="19.337099"
     inkscape:cx="15.647682"
     inkscape:zoom="15.839192"
     showgrid="false"
     id="namedview17"
     inkscape:window-height="907"
     inkscape:window-width="1600"
     inkscape:pageshadow="2"
     inkscape:pageopacity="0"
     guidetolerance="10"
     gridtolerance="10"
     objecttolerance="10"
     borderopacity="1"
     inkscape:document-rotation="0"
     bordercolor="#666666"
     pagecolor="#ffffff" />
  <defs
     id="defs4">
    <style
       type="text/css"
       id="style6" />
  </defs>
  <path
     d="m 3.096723,17.662551 1.2274881,-8.0761035 0.9643533,-0.5774741 0.943018,0.59312 c 0,0 1.0681849,8.1585996 0.967198,8.1088176 -0.099565,-0.04836 -4.0821445,0.0256 -4.1034797,-0.04836 z"
     id="path3457"
     opacity=".5"
     fill-opacity=".667"
     fill-rule="evenodd"
     stroke-width=".024"
     style="fill:#000000;stroke:none;stop-opacity:1;opacity:1;fill-opacity:1"
     inkscape:connector-curvature="0" />
  <path
     style="line-height:normal;font-variant-ligatures:normal;font-variant-position:normal;font-variant-caps:normal;font-variant-numeric:normal;font-variant-alternates:normal;font-feature-settings:normal;text-indent:0;text-align:start;text-decoration:none;text-decoration-line:none;text-decoration-style:solid;text-decoration-color:#000000;text-transform:none;text-orientation:mixed;white-space:normal;shape-padding:0;isolation:auto;mix-blend-mode:normal;solid-color:#000000;solid-opacity:1;fill:#000000;stroke:none;stop-opacity:1"
     d="m 2.4467091,6.1301371 a 0.227576,0.227576 0 0 0 -0.142235,0.061161 L 1.1850846,7.2381477 a 0.227576,0.227576 0 0 0 0.00853,0.3399416 L 4.490626,10.397187 1.1936187,13.219129 a 0.227576,0.227576 0 0 0 -0.00853,0.339942 l 1.1193895,1.04685 a 0.227576,0.227576 0 0 0 0.3385192,-0.03271 l 2.6398817,-3.598546 2.6384592,3.598546 a 0.227576,0.227576 0 0 0 0.337097,0.03271 l 1.1193894,-1.04685 a 0.227576,0.227576 0 0 0 -0.00853,-0.339942 l -3.299852,-2.82052 3.299852,-2.8205197 a 0.227576,0.227576 0 0 0 0.00853,-0.3399416 L 8.2584312,6.1912981 A 0.227576,0.227576 0 0 0 8.0934386,6.1301371 0.227576,0.227576 0 0 0 7.9227566,6.2254345 L 5.2814526,9.8225577 2.641571,6.2240121 A 0.227576,0.227576 0 0 0 2.4452867,6.1301371 Z m 2.8361659,4.1305039 0.142235,0.136546 -0.1450797,0.13939 -0.142235,-0.136545 z"
     id="path4180"
     color="#000"
     font-style="normal"
     font-variant="normal"
     font-weight="400"
     font-stretch="normal"
     font-size="medium"
     font-family="sans-serif"
     text-decoration="none"
     letter-spacing="normal"
     word-spacing="normal"
     writing-mode="lr-tb"
     direction="ltr"
     dominant-baseline="auto"
     baseline-shift="baseline"
     text-anchor="start"
     clip-rule="nonzero"
     display="inline"
     overflow="visible"
     visibility="visible"
     opacity="1"
     color-interpolation="sRGB"
     color-interpolation-filters="linearRGB"
     vector-effect="none"
     fill="#000"
     fill-opacity="1"
     fill-rule="evenodd"
     stroke-width=".319"
     stroke-linecap="round"
     stroke-linejoin="round"
     stroke-miterlimit="4"
     stroke-dasharray="none"
     stroke-dashoffset="0"
     stroke-opacity="1"
     color-rendering="auto"
     image-rendering="auto"
     shape-rendering="auto"
     text-rendering="auto"
     inkscape:connector-curvature="0" />
  <path
     d="M 13.57802,5.475856 A 1.2018858,1.2018858 0 0 0 13.188296,4.5683967 1.3000279,1.3000279 0 0 0 12.262346,4.1985858 1.2658915,1.2658915 0 0 0 11.344931,4.5683967 1.2161093,1.2161093 0 0 0 10.966586,5.475856 c 0,0.3584322 0.126589,0.6599704 0.378345,0.906037 a 1.2658915,1.2658915 0 0 0 0.917415,0.369811 c 0.358433,0 0.668505,-0.1237445 0.92595,-0.369811 A 1.2004634,1.2004634 0 0 0 13.57802,5.475856 Z m -3.427863,13.27337 c 0.27878,0 0.503512,-0.132278 0.677038,-0.398258 l 3.74647,-5.64104 0.199129,0.778026 -0.557561,4.224379 a 0.7737584,0.7737584 0 0 0 0.638635,0.87759 0.74673375,0.74673375 0 0 0 0.587431,-0.128011 0.7054856,0.7054856 0 0 0 0.30865,-0.509202 l 0.578896,-4.323944 c 0.0128,-0.147924 0,-0.300116 -0.03983,-0.459419 L 15.013171,8.0858683 18.34147,7.4884813 A 0.6059211,0.6059211 0 0 0 18.759641,7.2182348 0.654281,0.654281 0 0 0 18.879119,6.7303688 0.75242315,0.75242315 0 0 0 18.580425,6.292285 L 10.92676,1.2500542 10.229808,2.2656121 c -0.173526,0.2403772 -0.133701,0.4451956 0.119478,0.6187223 0.238954,0.146502 0.443773,0.1052539 0.6173,-0.1194774 l 0.398258,-0.597387 6.218514,4.0849891 -5.082057,0.9174158 a 0.72966555,0.72966555 0 0 0 -0.44804,0.288737 0.5234248,0.5234248 0 0 0 -0.08961,0.4878661 l 1.095209,4.285541 -3.5871663,5.362259 a 0.7652243,0.7652243 0 0 0 0.1294339,0.92595 0.7481561,0.7481561 0 0 0 0.5490274,0.228998 z"
     id="flowRoot2383"
     font-style="normal"
     font-weight="400"
     font-size="40"
     font-family="Bitstream Vera Sans"
     fill-opacity="1"
     stroke-width=".024"
     style="opacity:1;fill:#000000;stroke:none;stop-opacity:1"
     inkscape:connector-curvature="0" />
</svg>

<svg width="20" height="20" version="1.0" xmlns="http://www.w3.org/2000/svg"><defs><style/></defs><path d="M3.097 17.663l1.227-8.076.965-.578.943.594s1.068 8.158.967 8.108c-.1-.048-4.082.026-4.104-.048z" fill-rule="evenodd" stroke-width=".024"/><path d="M2.447 6.13a.228.228 0 00-.143.061L1.185 7.238a.228.228 0 00.009.34l3.297 2.82-3.297 2.821a.228.228 0 00-.009.34l1.12 1.047a.228.228 0 00.338-.033l2.64-3.598 2.638 3.598a.228.228 0 00.337.033l1.12-1.047a.228.228 0 00-.009-.34l-3.3-2.82 3.3-2.821a.228.228 0 00.009-.34l-1.12-1.047a.228.228 0 00-.165-.06.228.228 0 00-.17.094L5.282 9.822l-2.64-3.598a.228.228 0 00-.197-.094zm2.836 4.13l.142.137-.145.14-.142-.137z" fill-rule="evenodd" font-family="sans-serif" font-weight="400" overflow="visible" stroke-linecap="round" stroke-linejoin="round" stroke-width=".319" style="font-feature-settings:normal;font-variant-alternates:normal;font-variant-caps:normal;font-variant-ligatures:normal;font-variant-numeric:normal;font-variant-position:normal;isolation:auto;mix-blend-mode:normal;shape-padding:0;text-decoration-color:#000;text-decoration-line:none;text-decoration-style:solid;text-indent:0;text-orientation:mixed;text-transform:none;white-space:normal"/><path d="M13.578 5.476a1.202 1.202 0 00-.39-.908 1.3 1.3 0 00-.926-.37 1.266 1.266 0 00-.917.37 1.216 1.216 0 00-.378.908c0 .358.126.66.378.906a1.266 1.266 0 00.917.37c.359 0 .669-.124.926-.37a1.2 1.2 0 00.39-.906zM10.15 18.749c.279 0 .504-.132.677-.398l3.747-5.641.199.778-.558 4.224a.774.774 0 00.639.878.747.747 0 00.587-.128.705.705 0 00.309-.51l.579-4.323c.013-.148 0-.3-.04-.46l-1.276-5.083 3.328-.598a.606.606 0 00.419-.27.654.654 0 00.12-.488.752.752 0 00-.3-.438L10.927 1.25l-.697 1.015c-.174.24-.134.446.12.62.238.146.443.104.617-.12l.398-.598 6.218 4.085-5.082.918a.73.73 0 00-.448.288.523.523 0 00-.09.488l1.096 4.286-3.587 5.362a.765.765 0 00.129.926.748.748 0 00.55.23z" font-family="Bitstream Vera Sans" font-size="40" font-weight="400" stroke-width=".024"/></svg>
